X: 7587
T: Coen's Memories
R: reel
M: 4/4
K: Edorian
|:B,EED EFGA|B2 ec dBAF|D3 F EFDB,|A,DFD EDB,A,|
B,EED EFGA|B2 ec dBAF|DEFA dBAF|1 DEFD E2 ED:|2 DEFD EFGA||
|:Be e2 fedB|e2 fe dBAF|A3 B d2 fd|edef dBBA|
Be e2 fedB|e2 fe dBAF|DEFA dBAF|1 DEFD EFGA:|2 DEFD E2 ED||

